images/wing.svg

<svg width="310" height="588" viewBox="0 0 310 588" fill="none" xmlns="http://www.w3.org/2000/svg">
<path d="M276.471 172.444C243.833 89.3145 177.344 -16.4917 109.917 2.16362C81.4979 10.0058 55.9429 43.9636 36.984 80.8758C5.64834 144.5 -6.47971 201.066 3.31085 234.504C9.44912 255.888 25.4618 273.894 50.5803 287.958C69.4547 298.336 91.8721 306.374 115.554 313.457C126.343 316.687 137.399 319.693 148.486 322.582C98.1841 365.157 58.6071 407.257 47.0197 444.497C38.0102 471.125 64.2729 528.449 122.63 567.642C210.454 626.927 267.627 543.148 291.84 463.745C319.781 372.137 312.923 264.339 276.511 172.486L276.463 172.473L276.471 172.444Z" fill="#E1AA2C"/>
</svg>

<svg xmlns="http://www.w3.org/2000/svg" width="310" height="588" fill="none" viewBox="0 0 310 588"><path fill="#e1aa2c" d="M276.471 172.444c-32.638-83.13-99.127-188.936-166.554-170.28-28.42 7.842-53.974 41.8-72.933 78.712C5.648 144.5-6.48 201.066 3.311 234.504c6.138 21.384 22.15 39.39 47.27 53.454 18.874 10.378 41.291 18.416 64.973 25.499 10.789 3.23 21.845 6.236 32.932 9.125-50.302 42.575-89.879 84.675-101.466 121.915-9.01 26.628 17.253 83.952 75.61 123.145 87.824 59.285 144.997-24.494 169.21-103.897 27.941-91.608 21.083-199.406-15.329-291.259l-.048-.013z"/></svg>
